img/icons/logo_catalog_btn.svg

<svg width="63" height="59" viewBox="0 0 63 59" fill="none" xmlns="http://www.w3.org/2000/svg">
<path d="M51.7519 14.7187C57.1825 24.1201 50.1385 38.3269 36.0242 46.4581C34.0959 47.5711 32.1414 48.5139 30.1738 49.2733L31.3806 50.897C35.7749 50.1244 40.3791 48.4746 44.7997 45.9213C58.914 37.7901 65.958 23.5702 60.5274 14.1819C56.7234 7.59571 47.7905 5.12097 37.9262 7.04576C44.052 7.5957 49.1153 10.1752 51.7519 14.7187Z" fill="#141414"/>
<path d="M35.2895 6.34699L44.9893 0.569526L41.858 15.5446L35.2895 6.34699Z" fill="#141414"/>
<path d="M11.6075 43.374C6.17686 33.9727 13.2209 19.7659 27.3352 11.6346C29.2635 10.5217 31.2179 9.5789 33.1855 8.81945L31.9787 7.19582C27.5844 7.96836 22.9802 9.61818 18.5597 12.1715C4.44537 20.3027 -2.59867 34.5226 2.83193 43.9109C6.63597 50.4971 15.5689 52.9718 25.4332 51.047C19.3074 50.4971 14.244 47.9176 11.6075 43.374Z" fill="#141414"/>
<path d="M28.0698 51.7458L18.3701 57.5233L21.5014 42.5482L28.0698 51.7458Z" fill="#141414"/>
<path d="M58.0442 33.3644L59.3526 27.4766L40.9041 27.4766L39.5957 33.3644L58.0442 33.3644Z" fill="#141414"/>
</svg>

<svg width="63" height="59" fill="none" xmlns="http://www.w3.org/2000/svg"><path d="M51.752 14.719c5.43 9.401-1.614 23.608-15.728 31.74a41.914 41.914 0 01-5.85 2.814l1.207 1.624c4.394-.773 8.998-2.422 13.419-4.976 14.114-8.13 21.158-22.35 15.727-31.74-3.804-6.585-12.736-9.06-22.6-7.135 6.125.55 11.188 3.13 13.825 7.673z" fill="#141414"/><path d="M35.29 6.347L44.99.57l-3.132 14.975-6.569-9.198zM11.607 43.374c-5.43-9.401 1.614-23.608 15.728-31.74a41.93 41.93 0 015.85-2.815L31.98 7.196c-4.395.772-8.999 2.422-13.42 4.976C4.446 20.302-2.598 34.522 2.833 43.91c3.804 6.586 12.737 9.06 22.601 7.136-6.126-.55-11.189-3.13-13.825-7.673z" fill="#141414"/><path d="M28.07 51.746l-9.7 5.777 3.131-14.975 6.569 9.198zm29.974-18.382l1.309-5.887H40.904l-1.308 5.887h18.448z" fill="#141414"/></svg>
